packages/assets/static/images/icons/threads-logo.svg

<svg width="24" height="24" viewBox="0 0 24 24" xmlns="http://www.w3.org/2000/svg">
<path d="M17.4769 11.5922C17.1514 11.3472 16.8018 11.1361 16.4334 10.9622C16.0584 8.16 14.1834 7.27688 13.3303 7.01813C11.4759 6.45563 9.345 7.12969 8.37562 8.58375C8.32096 8.66574 8.28298 8.7577 8.26386 8.85437C8.24474 8.95104 8.24484 9.05054 8.26417 9.14717C8.3032 9.34232 8.41816 9.51398 8.58375 9.62438C8.74934 9.73477 8.95201 9.77486 9.14717 9.73583C9.2438 9.71651 9.33568 9.67834 9.41756 9.6235C9.49943 9.56867 9.56971 9.49824 9.62438 9.41625C10.2216 8.52 11.6869 8.08875 12.8953 8.45344C13.8281 8.73469 14.4722 9.41906 14.7844 10.4222C14.3119 10.3322 13.8319 10.2873 13.3509 10.2881C12.0459 10.2881 10.8244 10.6247 9.91313 11.235C8.84062 11.9597 8.25 13.0312 8.25 14.25C8.25 16.1794 9.73688 17.58 11.7853 17.58C12.3877 17.5759 12.9831 17.4509 13.5363 17.2124C14.0895 16.9739 14.5891 16.6268 15.0056 16.1916C15.6094 15.5634 16.3181 14.4703 16.4691 12.7134C16.5047 12.7378 16.5384 12.7631 16.5722 12.7884C17.52 13.5047 18 14.5013 18 15.75C18 17.565 16.0931 20.25 12 20.25C9.49406 20.25 7.73625 19.4391 6.62438 17.7712C5.71219 16.4062 5.25 14.4619 5.25 12C5.25 9.53813 5.71219 7.59375 6.62438 6.22875C7.73625 4.56094 9.49406 3.75 12 3.75C15.0872 3.75 17.0625 4.99219 18.0497 7.54875C18.0843 7.64172 18.137 7.7269 18.2048 7.79936C18.2725 7.87182 18.354 7.93012 18.4444 7.97088C18.5349 8.01164 18.6325 8.03406 18.7317 8.03683C18.8308 8.03959 18.9295 8.02266 19.0221 7.987C19.1147 7.95135 19.1993 7.89769 19.271 7.82912C19.3427 7.76055 19.4 7.67844 19.4398 7.58754C19.4795 7.49664 19.5008 7.39877 19.5025 7.29958C19.5041 7.20039 19.4861 7.10185 19.4494 7.00969C18.2513 3.89625 15.675 2.25 12 2.25C9 2.25 6.76781 3.30844 5.37563 5.39625C4.29656 7.01531 3.75 9.23625 3.75 12C3.75 14.7638 4.29656 16.9847 5.37563 18.6038C6.76781 20.6916 9 21.75 12 21.75C14.8191 21.75 16.5844 20.6737 17.5687 19.7719C18.7781 18.6637 19.5 17.1562 19.5 15.75C19.5 14.0306 18.8006 12.5925 17.4769 11.5922ZM13.9247 15.1547C13.6483 15.4446 13.3165 15.6762 12.9491 15.8356C12.5816 15.995 12.1859 16.0791 11.7853 16.0828C10.7719 16.0828 9.75 15.5203 9.75 14.2528C9.75 13.0687 10.875 11.7956 13.3509 11.7956C13.9085 11.7941 14.4636 11.8705 15 12.0225C15 13.3425 14.625 14.4244 13.9247 15.1519V15.1547Z"/>
</svg>

<svg viewBox="0 0 24 24" xmlns="http://www.w3.org/2000/svg" aria-hidden="true" fill="currentColor"><path d="M17.477 11.592a6 6 0 0 0-1.044-.63c-.375-2.802-2.25-3.685-3.103-3.944-1.854-.562-3.985.112-4.954 1.566a.75.75 0 1 0 1.248.832c.598-.896 2.063-1.327 3.271-.963.933.282 1.577.966 1.89 1.97a7.6 7.6 0 0 0-1.434-.135c-1.305 0-2.527.337-3.438.947-1.072.725-1.663 1.796-1.663 3.015 0 1.93 1.487 3.33 3.535 3.33a4.5 4.5 0 0 0 3.22-1.388c.604-.629 1.313-1.722 1.464-3.479l.103.075C17.52 13.505 18 14.501 18 15.75c0 1.815-1.907 4.5-6 4.5-2.506 0-4.264-.81-5.376-2.479C5.712 16.406 5.25 14.461 5.25 12c0-2.462.462-4.406 1.374-5.771C7.736 4.56 9.494 3.75 12 3.75c3.087 0 5.063 1.242 6.05 3.799a.75.75 0 1 0 1.4-.54C18.25 3.897 15.674 2.25 12 2.25c-3 0-5.232 1.058-6.624 3.146C4.296 7.016 3.75 9.236 3.75 12s.547 4.985 1.626 6.604C6.768 20.692 9 21.75 12 21.75c2.82 0 4.584-1.076 5.569-1.978 1.21-1.108 1.931-2.616 1.931-4.022 0-1.72-.7-3.158-2.023-4.158m-3.552 3.563a3 3 0 0 1-2.14.928c-1.013 0-2.035-.563-2.035-1.83 0-1.184 1.125-2.457 3.6-2.457a6 6 0 0 1 1.65.227c0 1.32-.375 2.401-1.075 3.129z"/></svg>
